**kern	**kern	**dynam
*part1	*part1	*part1
*staff2	*staff1	*
*I"Piano	*	*
*clefF4	*clefF4	*
*k[b-e-a-]	*k[b-e-a-]	*
=1	=1	=1
2.CC 2.C	2.G 2.c 2.en	.
8r	8r	.
*	*clefG2	*
8CC 8C	8G 8c 8en	.
=	=	=
4CC 4C	4G 4c 4en	.
8CCL 8C	8GL 8c 8e	.
8CCJ 8C	8GJ 8c 8e	.
8.CCL 8.C	8.GL 8.e 8.g	.
16CCK 16C	16GK 16c 16e	.
8.CC 8.C	8.G 8.c 8.e	.
16CCJk 16C	16GJk 16c 16e	.
=	=	=
4CC 4C	4G 4en 4g	.
8CCL 8C	8GL 8d 8f	.
8EEnJ	8GJ 8c 8e	.
2GGG 2GG	2G 2Bn 2d	<
=	=	=
2CC 2C	2G 2c 2en	[ >
4GGG' 4GG	4G'	]
8AAAn'L 8AAn	8An'L	.
8BBBn'J 8BBn	8Bn'J	.
=	=	=
2CC 2C	4.c	.
.	8c	.
4CC 4C	8cML	.
.	8Bn	.
4CC 4C	8c	.
.	8e-XJ	.
=	=	=
!	!	!LO:DY:a
[2BBB-X [2BB-X	[2B-X [2d [2f	ff >
8.BBB-L] 8.BB-]	8.B-L] 8.d] 8.f]	]
16BBB-Jk 16BB-	16B-Jk 16d 16f	.
8.BBB-L 8.BB-	8.B-L 8.d 8.f	.
16BBB-Jk 16BB-	16B-Jk 16d 16f	.
=	=	=
4GGG 4GG	4B-' 4e- 4g	.
4GGG 4GG	4Bn' 4d 4f	.
4GGG 4GG	4c' 4e-	.
4GGG 4GG	4G' 4B 4d	.
=	=	=
!	!	!LO:DY:a
2CC 2C	2En 2G 2c	fz
8.r	8.r	.
==	==	==
*-	*-	*-
!!!system-decoration: {(s1,s2)}
